!!!OTL: Old Lady Sittin' in the Dining Room
!!!ARE: United States of America; Alabama
!!!ONB: Alabama Folk Game
!!!AMD: Pentatonic
**kern
=1-
*clefG2
*k[b-]
*M2/4
*MM80
{8f/L
16f/L
16f/JJ
16f/LL
16f/
16f/
16f/JJ
=2
8d/L
8c/J
4c/}
=3
{8.f/L
16f/Jk
8.f/L
16f/Jk
=4
8a/
4.cc\}
=5
{8dd\L
8cc\J
8a/L
8f/J
=6
8cc/L
8a/J
(8d/L
8c/J)}
=7
{8a/L
8f/J
16d/LL
16d/J
8c/J
=8
8f/
4f/}
8r
=9
*k[]
{8.f/L
16f/Jk
8.f/L
16f/Jk
=10
8f/L
8d/J
4c/}
=11
{8.f/L
16f/Jk
8.f/L
16f/Jk
=12
*k[b-]
8a/
4.cc\}
=13
{8dd\L
8cc\J
8a/L
16f/L
16f/JJ
=14
8a/L
8f/J
(8d/L
8c/J)}
=15
{8a/L
16f/L
16f/JJ
8d/L
8c/J
=16
8f/
4f/}
8r
==
*-
